X:1
T:House of Inveruan, THe
T:House of Inveruan, THe
T:Alexander Walker
C:Alexander Walker
L:1/8
M:4/4
K:Bmin
V:1 treble 
V:1
 F>Bd>A B2 B>f | e>Ac>A a>Ac>A | F<BB>c d>ef>b | a>f{f}e>c B/B/B B2 :| c | B>bd>b c>ae>c | %6
 B>bd>b B>c'f>g | a>f{f}e>d c<AA>c | d>f{f}e>c B/B/B B>F | B>bd>b c>ac>A | B>bd>b f>g{b} a>c | %11
 (df/d/) (ce/c/) A>Bc>e | f>de>c B/B/B B2 || %13

